icons/svg/image-area.svg

﻿<?xml version="1.0" encoding="utf-8"?>
<!DOCTYPE svg PUBLIC "-//W3C//DTD SVG 1.1//EN" "http://www.w3.org/Graphics/SVG/1.1/DTD/svg11.dtd">
<svg xmlns="http://www.w3.org/2000/svg" xmlns:xlink="http://www.w3.org/1999/xlink" version="1.1" baseProfile="full" width="24" height="24" viewBox="0 0 24.00 24.00" enable-background="new 0 0 24.00 24.00" xml:space="preserve">
	<path fill="#000000" fill-opacity="1" stroke-width="0.2" stroke-linejoin="round" d="M 19.9994,4.99807C 21.1034,4.99807 21.9994,5.89406 21.9994,6.99807L 21.9994,16.9981C 21.9994,18.1021 21.1034,18.9981 19.9994,18.9981L 3.99941,18.9981C 2.89441,18.9981 1.99941,18.1021 1.99941,16.9981L 2.0094,6.99807C 2.0094,5.89406 2.89441,4.99807 3.99941,4.99807L 19.9994,4.99807 Z M 5,16L 19,16L 14.5,10L 11,14.506L 8.5,11.5L 5,16 Z "/>
</svg>

<svg xmlns="http://www.w3.org/2000/svg" version="1.1" baseProfile="full" width="24" height="24" viewBox="0 0 24.00 24.00" xml:space="preserve"><path fill="#000" fill-opacity="1" stroke-width=".2" stroke-linejoin="round" d="M20 4.998c1.103 0 2 .896 2 2v10c0 1.104-.897 2-2 2H4c-1.106 0-2-.896-2-2l.01-10c0-1.104.884-2 1.99-2h16zM5 16h14l-4.5-6-3.5 4.506L8.5 11.5 5 16z"/></svg>
